src/view/frontend/web/svg/heroicons/outline/user-add.svg

<svg  viewBox="0 0 24 24" fill="none" stroke="currentColor" xmlns="http://www.w3.org/2000/svg">
<path d="M18 9V12M18 12V15M18 12H21M18 12H15M13 7C13 9.20914 11.2091 11 9 11C6.79086 11 5 9.20914 5 7C5 4.79086 6.79086 3 9 3C11.2091 3 13 4.79086 13 7ZM3 20C3 16.6863 5.68629 14 9 14C12.3137 14 15 16.6863 15 20V21H3V20Z"  stroke-width="2" stroke-linecap="round" stroke-linejoin="round"/>
</svg>

<svg xmlns="http://www.w3.org/2000/svg" fill="none" stroke="currentColor" viewBox="0 0 24 24"><path stroke-linecap="round" stroke-linejoin="round" stroke-width="2" d="M18 9v3m0 0v3m0-3h3m-3 0h-3m-2-5a4 4 0 1 1-8 0 4 4 0 0 1 8 0ZM3 20a6 6 0 0 1 12 0v1H3v-1Z"/></svg>
